X:1
T: Neil Gow's House
T: Niel Gow's House
C:Alexander Walker
R:Strathspey
Q: 128
K:D
M:4/4
L:1/16
|:A,2|D3A F3A B,D3 CA,3|D3F A3F B6 c2|df3 d3A Bd3 A3F|E3D F3E D6 A,2|
D3A F3A B,D3 CA,3|D3F A3F B6 c2|df3 d3A Bd3 A3F|E3D F3E D6 e2|
d3e a3f bagf a4|g3e f3d eE3 E3G|F3D A3F G3E e3d|c3A B3c dD3 D3g|
fgaf d3g b3g a3g|fgaf d3f eE3 E3c|d3f c3e B3d A3F|CA,3 E3C D6:|
